(Exported by FreeCAD)
(Post Processor: grbl_post)
(Output Time:2021-05-27 19:59:07.417082)
(Begin preamble)
G17 G90
G21
(Begin operation: Fixture)
(Path: Fixture)
G54
(Finish operation: Fixture)
(Begin operation: 2-2_wtf003)
(Path: 2-2_wtf003)
(2-2_wtf003)
(Begin toolchange)
( M6 T1.0 )
M3 S10000.0
(Finish operation: 2-2_wtf003)
(Begin operation: Profile009)
(Path: Profile009)
(Profile009)
(Compensated Tool Path. Diameter: 2.2)
G0 Z5.000
G0 X-2.222 Y101.778
G0 Z3.000
G1 X-2.222 Y101.778 Z-2.200 F60.000
G2 X-1.900 Y101.000 Z-2.200 I-0.778 J-0.778 K0.000 F60.000
G1 X-1.900 Y92.000 Z-2.200 F60.000
G2 X-3.000 Y90.900 Z-2.200 I-1.100 J-0.000 K0.000 F60.000
G1 X-5.900 Y90.900 Z-2.200 F60.000
G1 X-5.900 Y13.100 Z-2.200 F60.000
G1 X-3.000 Y13.100 Z-2.200 F60.000
G2 X-1.900 Y12.000 Z-2.200 I0.000 J-1.100 K0.000 F60.000
G1 X-1.900 Y3.000 Z-2.200 F60.000
G2 X-3.000 Y1.900 Z-2.200 I-1.100 J-0.000 K0.000 F60.000
G1 X-14.000 Y1.900 Z-2.200 F60.000
G2 X-15.100 Y3.000 Z-2.200 I-0.000 J1.100 K0.000 F60.000
G1 X-15.100 Y5.900 Z-2.200 F60.000
G1 X-24.900 Y5.900 Z-2.200 F60.000
G1 X-24.900 Y3.000 Z-2.200 F60.000
G2 X-26.000 Y1.900 Z-2.200 I-1.100 J-0.000 K0.000 F60.000
G1 X-37.000 Y1.900 Z-2.200 F60.000
G2 X-38.100 Y3.000 Z-2.200 I-0.000 J1.100 K0.000 F60.000
G1 X-38.100 Y12.000 Z-2.200 F60.000
G2 X-37.000 Y13.100 Z-2.200 I1.100 J0.000 K0.000 F60.000
G1 X-34.100 Y13.100 Z-2.200 F60.000
G1 X-34.100 Y90.900 Z-2.200 F60.000
G1 X-37.000 Y90.900 Z-2.200 F60.000
G2 X-38.100 Y92.000 Z-2.200 I-0.000 J1.100 K0.000 F60.000
G1 X-38.100 Y101.000 Z-2.200 F60.000
G2 X-37.000 Y102.100 Z-2.200 I1.100 J0.000 K0.000 F60.000
G1 X-26.000 Y102.100 Z-2.200 F60.000
G2 X-24.900 Y101.000 Z-2.200 I0.000 J-1.100 K0.000 F60.000
G1 X-24.900 Y98.100 Z-2.200 F60.000
G1 X-15.100 Y98.100 Z-2.200 F60.000
G1 X-15.100 Y101.000 Z-2.200 F60.000
G2 X-14.000 Y102.100 Z-2.200 I1.100 J0.000 K0.000 F60.000
G1 X-3.000 Y102.100 Z-2.200 F60.000
G2 X-2.222 Y101.778 Z-2.200 I0.000 J-1.100 K0.000 F60.000
G1 X-2.222 Y101.778 Z-4.000 F60.000
G2 X-1.900 Y101.000 Z-4.000 I-0.778 J-0.778 K0.000 F60.000
G1 X-1.900 Y92.000 Z-4.000 F60.000
G2 X-3.000 Y90.900 Z-4.000 I-1.100 J-0.000 K0.000 F60.000
G1 X-5.900 Y90.900 Z-4.000 F60.000
G1 X-5.900 Y13.100 Z-4.000 F60.000
G1 X-3.000 Y13.100 Z-4.000 F60.000
G2 X-1.900 Y12.000 Z-4.000 I0.000 J-1.100 K0.000 F60.000
G1 X-1.900 Y3.000 Z-4.000 F60.000
G2 X-3.000 Y1.900 Z-4.000 I-1.100 J-0.000 K0.000 F60.000
G1 X-14.000 Y1.900 Z-4.000 F60.000
G2 X-15.100 Y3.000 Z-4.000 I-0.000 J1.100 K0.000 F60.000
G1 X-15.100 Y5.900 Z-4.000 F60.000
G1 X-24.900 Y5.900 Z-4.000 F60.000
G1 X-24.900 Y3.000 Z-4.000 F60.000
G2 X-26.000 Y1.900 Z-4.000 I-1.100 J-0.000 K0.000 F60.000
G1 X-37.000 Y1.900 Z-4.000 F60.000
G2 X-38.100 Y3.000 Z-4.000 I-0.000 J1.100 K0.000 F60.000
G1 X-38.100 Y12.000 Z-4.000 F60.000
G2 X-37.000 Y13.100 Z-4.000 I1.100 J0.000 K0.000 F60.000
G1 X-34.100 Y13.100 Z-4.000 F60.000
G1 X-34.100 Y90.900 Z-4.000 F60.000
G1 X-37.000 Y90.900 Z-4.000 F60.000
G2 X-38.100 Y92.000 Z-4.000 I-0.000 J1.100 K0.000 F60.000
G1 X-38.100 Y101.000 Z-4.000 F60.000
G2 X-37.000 Y102.100 Z-4.000 I1.100 J0.000 K0.000 F60.000
G1 X-26.000 Y102.100 Z-4.000 F60.000
G2 X-24.900 Y101.000 Z-4.000 I0.000 J-1.100 K0.000 F60.000
G1 X-24.900 Y98.100 Z-4.000 F60.000
G1 X-15.100 Y98.100 Z-4.000 F60.000
G1 X-15.100 Y101.000 Z-4.000 F60.000
G2 X-14.000 Y102.100 Z-4.000 I1.100 J0.000 K0.000 F60.000
G1 X-3.000 Y102.100 Z-4.000 F60.000
G2 X-2.222 Y101.778 Z-4.000 I0.000 J-1.100 K0.000 F60.000
G0 Z5.000
G0 Z5.000
(Finish operation: Profile009)
(Begin postamble)
M5
G17 G90
M2
