(Exported by FreeCAD)
(Post Processor: grbl_post)
(Output Time:2021-05-27 19:05:54.722932)
(Begin preamble)
G17 G90
G21
(Begin operation: Fixture)
(Path: Fixture)
G54
(Finish operation: Fixture)
(Begin operation: 2-2_wtf001)
(Path: 2-2_wtf001)
(2-2_wtf001)
(Begin toolchange)
( M6 T1.0 )
M3 S10000.0
(Finish operation: 2-2_wtf001)
(Begin operation: Profile008)
(Path: Profile008)
(Profile008)
(Compensated Tool Path. Diameter: 2.2)
G0 Z5.000
G0 X-15.350 Y33.100
G0 Z3.000
G1 X-15.350 Y33.100 Z-2.200 F60.000
G1 X-15.350 Y27.800 Z-2.200 F60.000
G1 X-24.650 Y27.800 Z-2.200 F60.000
G1 X-24.650 Y33.100 Z-2.200 F60.000
G1 X-15.350 Y33.100 Z-2.200 F60.000
G1 X-15.350 Y33.100 Z-4.000 F60.000
G1 X-15.350 Y27.800 Z-4.000 F60.000
G1 X-24.650 Y27.800 Z-4.000 F60.000
G1 X-24.650 Y33.100 Z-4.000 F60.000
G1 X-15.350 Y33.100 Z-4.000 F60.000
G0 Z5.000
G0 Z5.000
(Finish operation: Profile008)
(Begin operation: Profile007)
(Path: Profile007)
(Profile007)
(Compensated Tool Path. Diameter: 2.2)
G0 Z5.000
G0 X-2.632 Y39.037
G0 Z3.000
G1 X-2.632 Y39.037 Z-2.200 F60.000
G2 X-1.900 Y38.000 Z-2.200 I-0.368 J-1.037 K0.000 F60.000
G1 X-1.900 Y30.500 Z-2.200 F60.000
G2 X-3.000 Y29.400 Z-2.200 I-1.100 J-0.000 K0.000 F60.000
G1 X-5.900 Y29.400 Z-2.200 F60.000
G1 X-5.900 Y15.600 Z-2.200 F60.000
G1 X-3.000 Y15.600 Z-2.200 F60.000
G2 X-1.900 Y14.500 Z-2.200 I0.000 J-1.100 K0.000 F60.000
G1 X-1.900 Y7.000 Z-2.200 F60.000
G2 X-3.000 Y5.900 Z-2.200 I-1.100 J-0.000 K0.000 F60.000
G1 X-12.900 Y5.900 Z-2.200 F60.000
G1 X-12.900 Y3.000 Z-2.200 F60.000
G2 X-14.000 Y1.900 Z-2.200 I-1.100 J-0.000 K0.000 F60.000
G1 X-26.000 Y1.900 Z-2.200 F60.000
G2 X-27.100 Y3.000 Z-2.200 I0.000 J1.100 K0.000 F60.000
G1 X-27.100 Y5.900 Z-2.200 F60.000
G1 X-37.000 Y5.900 Z-2.200 F60.000
G2 X-38.100 Y7.000 Z-2.200 I0.000 J1.100 K0.000 F60.000
G1 X-38.100 Y14.500 Z-2.200 F60.000
G2 X-37.000 Y15.600 Z-2.200 I1.100 J-0.000 K0.000 F60.000
G1 X-34.100 Y15.600 Z-2.200 F60.000
G1 X-34.100 Y29.400 Z-2.200 F60.000
G1 X-37.000 Y29.400 Z-2.200 F60.000
G2 X-38.100 Y30.500 Z-2.200 I-0.000 J1.100 K0.000 F60.000
G1 X-38.100 Y38.000 Z-2.200 F60.000
G2 X-37.000 Y39.100 Z-2.200 I1.100 J0.000 K0.000 F60.000
G1 X-27.100 Y39.100 Z-2.200 F60.000
G1 X-27.100 Y40.000 Z-2.200 F60.000
G2 X-26.000 Y41.100 Z-2.200 I1.100 J0.000 K0.000 F60.000
G1 X-14.000 Y41.100 Z-2.200 F60.000
G2 X-12.937 Y40.285 Z-2.200 I-0.000 J-1.100 K0.000 F60.000
G2 X-12.900 Y39.100 Z-2.200 I-4.481 J-0.735 K0.000 F60.000
G1 X-3.000 Y39.100 Z-2.200 F60.000
G2 X-2.632 Y39.037 Z-2.200 I0.000 J-1.100 K0.000 F60.000
G1 X-2.632 Y39.037 Z-4.000 F60.000
G2 X-1.900 Y38.000 Z-4.000 I-0.368 J-1.037 K0.000 F60.000
G1 X-1.900 Y30.500 Z-4.000 F60.000
G2 X-3.000 Y29.400 Z-4.000 I-1.100 J-0.000 K0.000 F60.000
G1 X-5.900 Y29.400 Z-4.000 F60.000
G1 X-5.900 Y15.600 Z-4.000 F60.000
G1 X-3.000 Y15.600 Z-4.000 F60.000
G2 X-1.900 Y14.500 Z-4.000 I0.000 J-1.100 K0.000 F60.000
G1 X-1.900 Y7.000 Z-4.000 F60.000
G2 X-3.000 Y5.900 Z-4.000 I-1.100 J-0.000 K0.000 F60.000
G1 X-12.900 Y5.900 Z-4.000 F60.000
G1 X-12.900 Y3.000 Z-4.000 F60.000
G2 X-14.000 Y1.900 Z-4.000 I-1.100 J-0.000 K0.000 F60.000
G1 X-26.000 Y1.900 Z-4.000 F60.000
G2 X-27.100 Y3.000 Z-4.000 I0.000 J1.100 K0.000 F60.000
G1 X-27.100 Y5.900 Z-4.000 F60.000
G1 X-37.000 Y5.900 Z-4.000 F60.000
G2 X-38.100 Y7.000 Z-4.000 I0.000 J1.100 K0.000 F60.000
G1 X-38.100 Y14.500 Z-4.000 F60.000
G2 X-37.000 Y15.600 Z-4.000 I1.100 J-0.000 K0.000 F60.000
G1 X-34.100 Y15.600 Z-4.000 F60.000
G1 X-34.100 Y29.400 Z-4.000 F60.000
G1 X-37.000 Y29.400 Z-4.000 F60.000
G2 X-38.100 Y30.500 Z-4.000 I-0.000 J1.100 K0.000 F60.000
G1 X-38.100 Y38.000 Z-4.000 F60.000
G2 X-37.000 Y39.100 Z-4.000 I1.100 J0.000 K0.000 F60.000
G1 X-27.100 Y39.100 Z-4.000 F60.000
G1 X-27.100 Y40.000 Z-4.000 F60.000
G2 X-26.000 Y41.100 Z-4.000 I1.100 J0.000 K0.000 F60.000
G1 X-14.000 Y41.100 Z-4.000 F60.000
G2 X-12.937 Y40.285 Z-4.000 I-0.000 J-1.100 K0.000 F60.000
G2 X-12.900 Y39.100 Z-4.000 I-4.481 J-0.735 K0.000 F60.000
G1 X-3.000 Y39.100 Z-4.000 F60.000
G2 X-2.632 Y39.037 Z-4.000 I0.000 J-1.100 K0.000 F60.000
G0 Z5.000
G0 Z5.000
(Finish operation: Profile007)
(Begin postamble)
M5
G17 G90
M2
