(Exported by FreeCAD)
(Post Processor: grbl_post)
(Output Time:2021-05-27 11:38:14.643087)
(Begin preamble)
G17 G90
G21
(Begin operation: Fixture)
(Path: Fixture)
G54
(Finish operation: Fixture)
(Begin operation: 1mm_mill001)
(Path: 1mm_mill001)
(1mm_mill001)
(Begin toolchange)
( M6 T1.0 )
M3 S5000.0
(Finish operation: 1mm_mill001)
(Begin operation: Profile)
(Path: Profile)
(Profile)
(Compensated Tool Path. Diameter: 1.0)
G0 Z4.000
G0 X-15.242 Y63.680
G0 Z2.000
G1 X-15.242 Y63.680 Z-2.000 F60.000
G2 X-15.199 Y63.573 Z-2.000 I-2.758 J-1.182 K0.000 F60.000
G1 X-11.484 Y54.057 Z-2.000 F60.000
G2 X-11.099 Y52.668 Z-2.000 I-6.577 J-2.571 K0.000 F60.000
G2 X-11.685 Y48.481 Z-2.000 I-6.901 J-1.168 K0.000 F60.000
G2 X-24.516 Y54.057 Z-2.000 I-6.315 J3.019 K0.000 F60.000
G1 X-20.801 Y63.573 Z-2.000 F60.000
G2 X-15.242 Y63.680 Z-2.000 I2.801 J-1.076 K0.000 F60.000
G1 X-15.242 Y63.680 Z-3.000 F60.000
G2 X-15.199 Y63.573 Z-3.000 I-2.758 J-1.182 K0.000 F60.000
G1 X-11.484 Y54.057 Z-3.000 F60.000
G2 X-11.099 Y52.668 Z-3.000 I-6.577 J-2.571 K0.000 F60.000
G2 X-11.685 Y48.481 Z-3.000 I-6.901 J-1.168 K0.000 F60.000
G2 X-24.516 Y54.057 Z-3.000 I-6.315 J3.019 K0.000 F60.000
G1 X-20.801 Y63.573 Z-3.000 F60.000
G2 X-15.242 Y63.680 Z-3.000 I2.801 J-1.076 K0.000 F60.000
G0 Z4.000
G0 Z4.000
(Finish operation: Profile)
(Begin operation: Profile004)
(Path: Profile004)
(Profile004)
(Compensated Tool Path. Diameter: 1.0)
G0 Z4.000
G0 X-7.880 Y86.120
G0 Z2.000
G1 X-7.880 Y86.120 Z-2.000 F60.000
G2 X-9.353 Y81.072 Z-2.000 I-2.120 J-2.120 K0.000 F60.000
G2 X-12.928 Y83.353 Z-2.000 I-0.647 J2.928 K0.000 F60.000
G2 X-10.647 Y86.928 Z-2.000 I2.928 J0.647 K0.000 F60.000
G2 X-7.880 Y86.120 Z-2.000 I0.647 J-2.928 K0.000 F60.000
G1 X-7.880 Y86.120 Z-3.000 F60.000
G2 X-9.353 Y81.072 Z-3.000 I-2.120 J-2.120 K0.000 F60.000
G2 X-12.928 Y83.353 Z-3.000 I-0.647 J2.928 K0.000 F60.000
G2 X-10.647 Y86.928 Z-3.000 I2.928 J0.647 K0.000 F60.000
G2 X-7.880 Y86.120 Z-3.000 I0.647 J-2.928 K0.000 F60.000
G0 Z4.000
G0 Z4.000
(Finish operation: Profile004)
(Begin operation: Profile005)
(Path: Profile005)
(Profile005)
(Compensated Tool Path. Diameter: 1.0)
G0 Z4.000
G0 X-23.880 Y86.120
G0 Z2.000
G1 X-23.880 Y86.120 Z-2.000 F60.000
G2 X-25.353 Y81.072 Z-2.000 I-2.120 J-2.120 K0.000 F60.000
G2 X-28.928 Y83.353 Z-2.000 I-0.647 J2.928 K0.000 F60.000
G2 X-26.647 Y86.928 Z-2.000 I2.928 J0.647 K0.000 F60.000
G2 X-23.880 Y86.120 Z-2.000 I0.647 J-2.928 K0.000 F60.000
G1 X-23.880 Y86.120 Z-3.000 F60.000
G2 X-25.353 Y81.072 Z-3.000 I-2.120 J-2.120 K0.000 F60.000
G2 X-28.928 Y83.353 Z-3.000 I-0.647 J2.928 K0.000 F60.000
G2 X-26.647 Y86.928 Z-3.000 I2.928 J0.647 K0.000 F60.000
G2 X-23.880 Y86.120 Z-3.000 I0.647 J-2.928 K0.000 F60.000
G0 Z4.000
G0 Z4.000
(Finish operation: Profile005)
(Begin operation: outer)
(Path: outer)
(outer)
(Compensated Tool Path. Diameter: 1.0)
G0 Z4.000
G0 X-0.646 Y100.354
G0 Z2.000
G1 X-0.646 Y100.354 Z-2.000 F60.000
G2 X-0.500 Y100.000 Z-2.000 I-0.354 J-0.354 K0.000 F60.000
G1 X-0.500 Y91.000 Z-2.000 F60.000
G2 X-1.000 Y90.500 Z-2.000 I-0.500 J-0.000 K0.000 F60.000
G1 X-4.500 Y90.500 Z-2.000 F60.000
G1 X-4.500 Y11.500 Z-2.000 F60.000
G1 X-1.000 Y11.500 Z-2.000 F60.000
G2 X-0.500 Y11.000 Z-2.000 I0.000 J-0.500 K0.000 F60.000
G1 X-0.500 Y2.000 Z-2.000 F60.000
G2 X-1.000 Y1.500 Z-2.000 I-0.500 J-0.000 K0.000 F60.000
G1 X-12.000 Y1.500 Z-2.000 F60.000
G2 X-12.500 Y2.000 Z-2.000 I-0.000 J0.500 K0.000 F60.000
G1 X-12.500 Y5.500 Z-2.000 F60.000
G1 X-23.500 Y5.500 Z-2.000 F60.000
G1 X-23.500 Y2.000 Z-2.000 F60.000
G2 X-24.000 Y1.500 Z-2.000 I-0.500 J-0.000 K0.000 F60.000
G1 X-35.000 Y1.500 Z-2.000 F60.000
G2 X-35.500 Y2.000 Z-2.000 I-0.000 J0.500 K0.000 F60.000
G1 X-35.500 Y11.000 Z-2.000 F60.000
G2 X-35.000 Y11.500 Z-2.000 I0.500 J0.000 K0.000 F60.000
G1 X-31.500 Y11.500 Z-2.000 F60.000
G1 X-31.500 Y90.500 Z-2.000 F60.000
G1 X-35.000 Y90.500 Z-2.000 F60.000
G2 X-35.500 Y91.000 Z-2.000 I-0.000 J0.500 K0.000 F60.000
G1 X-35.500 Y100.000 Z-2.000 F60.000
G2 X-35.000 Y100.500 Z-2.000 I0.500 J0.000 K0.000 F60.000
G1 X-24.000 Y100.500 Z-2.000 F60.000
G2 X-23.500 Y100.000 Z-2.000 I0.000 J-0.500 K0.000 F60.000
G1 X-23.500 Y96.500 Z-2.000 F60.000
G1 X-12.500 Y96.500 Z-2.000 F60.000
G1 X-12.500 Y100.000 Z-2.000 F60.000
G2 X-12.000 Y100.500 Z-2.000 I0.500 J0.000 K0.000 F60.000
G1 X-1.000 Y100.500 Z-2.000 F60.000
G2 X-0.646 Y100.354 Z-2.000 I0.000 J-0.500 K0.000 F60.000
G1 X-0.646 Y100.354 Z-3.000 F60.000
G2 X-0.500 Y100.000 Z-3.000 I-0.354 J-0.354 K0.000 F60.000
G1 X-0.500 Y91.000 Z-3.000 F60.000
G2 X-1.000 Y90.500 Z-3.000 I-0.500 J-0.000 K0.000 F60.000
G1 X-4.500 Y90.500 Z-3.000 F60.000
G1 X-4.500 Y11.500 Z-3.000 F60.000
G1 X-1.000 Y11.500 Z-3.000 F60.000
G2 X-0.500 Y11.000 Z-3.000 I0.000 J-0.500 K0.000 F60.000
G1 X-0.500 Y2.000 Z-3.000 F60.000
G2 X-1.000 Y1.500 Z-3.000 I-0.500 J-0.000 K0.000 F60.000
G1 X-12.000 Y1.500 Z-3.000 F60.000
G2 X-12.500 Y2.000 Z-3.000 I-0.000 J0.500 K0.000 F60.000
G1 X-12.500 Y5.500 Z-3.000 F60.000
G1 X-23.500 Y5.500 Z-3.000 F60.000
G1 X-23.500 Y2.000 Z-3.000 F60.000
G2 X-24.000 Y1.500 Z-3.000 I-0.500 J-0.000 K0.000 F60.000
G1 X-35.000 Y1.500 Z-3.000 F60.000
G2 X-35.500 Y2.000 Z-3.000 I-0.000 J0.500 K0.000 F60.000
G1 X-35.500 Y11.000 Z-3.000 F60.000
G2 X-35.000 Y11.500 Z-3.000 I0.500 J0.000 K0.000 F60.000
G1 X-31.500 Y11.500 Z-3.000 F60.000
G1 X-31.500 Y90.500 Z-3.000 F60.000
G1 X-35.000 Y90.500 Z-3.000 F60.000
G2 X-35.500 Y91.000 Z-3.000 I-0.000 J0.500 K0.000 F60.000
G1 X-35.500 Y100.000 Z-3.000 F60.000
G2 X-35.000 Y100.500 Z-3.000 I0.500 J0.000 K0.000 F60.000
G1 X-24.000 Y100.500 Z-3.000 F60.000
G2 X-23.500 Y100.000 Z-3.000 I0.000 J-0.500 K0.000 F60.000
G1 X-23.500 Y96.500 Z-3.000 F60.000
G1 X-12.500 Y96.500 Z-3.000 F60.000
G1 X-12.500 Y100.000 Z-3.000 F60.000
G2 X-12.000 Y100.500 Z-3.000 I0.500 J0.000 K0.000 F60.000
G1 X-1.000 Y100.500 Z-3.000 F60.000
G2 X-0.646 Y100.354 Z-3.000 I0.000 J-0.500 K0.000 F60.000
G0 Z4.000
G0 Z4.000
(Finish operation: outer)
(Begin postamble)
M5
G17 G90
M2
