(Exported by FreeCAD)
(Post Processor: grbl_post)
(Output Time:2021-05-27 16:32:43.068137)
(Begin preamble)
G17 G90
G21
(Begin operation: Fixture)
(Path: Fixture)
G54
(Finish operation: Fixture)
(Begin operation: 0-8mm_mill001)
(Path: 0-8mm_mill001)
(0-8mm_mill001)
(Begin toolchange)
( M6 T1.0 )
M3 S10000.0
(Finish operation: 0-8mm_mill001)
(Begin operation: Pocket_Shape)
(Path: Pocket_Shape)
(Pocket_Shape)
G0 Z5.000
G0 X-13.100 Y95.600
G0 Z3.000
G1 X-13.100 Y95.600 Z-0.800 F24.000
G1 X-13.900 Y95.600 Z-0.800 F24.000
G1 X-13.900 Y95.269 Z-0.800 F24.000
G1 X-13.100 Y94.469 Z-0.800 F24.000
G1 X-13.100 Y93.337 Z-0.800 F24.000
G1 X-13.900 Y94.137 Z-0.800 F24.000
G1 X-13.900 Y93.006 Z-0.800 F24.000
G1 X-13.100 Y92.206 Z-0.800 F24.000
G1 X-13.100 Y91.075 Z-0.800 F24.000
G1 X-13.900 Y91.875 Z-0.800 F24.000
G1 X-13.900 Y90.743 Z-0.800 F24.000
G1 X-13.100 Y89.943 Z-0.800 F24.000
G1 X-13.100 Y88.812 Z-0.800 F24.000
G1 X-13.900 Y89.612 Z-0.800 F24.000
G1 X-13.900 Y88.480 Z-0.800 F24.000
G1 X-13.100 Y87.680 Z-0.800 F24.000
G1 X-13.100 Y86.549 Z-0.800 F24.000
G1 X-13.900 Y87.349 Z-0.800 F24.000
G1 X-13.900 Y86.218 Z-0.800 F24.000
G1 X-13.100 Y85.418 Z-0.800 F24.000
G1 X-13.100 Y84.286 Z-0.800 F24.000
G1 X-13.900 Y85.086 Z-0.800 F24.000
G1 X-13.900 Y83.955 Z-0.800 F24.000
G1 X-13.100 Y83.155 Z-0.800 F24.000
G1 X-13.100 Y82.024 Z-0.800 F24.000
G1 X-13.900 Y82.824 Z-0.800 F24.000
G1 X-13.900 Y81.692 Z-0.800 F24.000
G1 X-13.100 Y80.892 Z-0.800 F24.000
G1 X-13.100 Y79.761 Z-0.800 F24.000
G1 X-13.900 Y80.561 Z-0.800 F24.000
G1 X-13.900 Y79.429 Z-0.800 F24.000
G1 X-13.100 Y78.629 Z-0.800 F24.000
G1 X-13.100 Y77.498 Z-0.800 F24.000
G1 X-13.900 Y78.298 Z-0.800 F24.000
G1 X-13.900 Y77.167 Z-0.800 F24.000
G1 X-13.100 Y76.367 Z-0.800 F24.000
G1 X-13.100 Y75.235 Z-0.800 F24.000
G1 X-13.900 Y76.035 Z-0.800 F24.000
G1 X-13.900 Y74.904 Z-0.800 F24.000
G1 X-13.100 Y74.104 Z-0.800 F24.000
G1 X-13.100 Y72.973 Z-0.800 F24.000
G1 X-13.900 Y73.773 Z-0.800 F24.000
G1 X-13.900 Y72.641 Z-0.800 F24.000
G1 X-13.100 Y71.841 Z-0.800 F24.000
G1 X-13.100 Y70.710 Z-0.800 F24.000
G1 X-13.900 Y71.510 Z-0.800 F24.000
G1 X-13.900 Y70.378 Z-0.800 F24.000
G1 X-13.100 Y69.578 Z-0.800 F24.000
G1 X-13.100 Y68.447 Z-0.800 F24.000
G1 X-13.900 Y69.247 Z-0.800 F24.000
G1 X-13.900 Y68.116 Z-0.800 F24.000
G1 X-13.100 Y67.316 Z-0.800 F24.000
G1 X-13.100 Y66.184 Z-0.800 F24.000
G1 X-13.900 Y66.984 Z-0.800 F24.000
G1 X-13.900 Y65.853 Z-0.800 F24.000
G1 X-13.100 Y65.053 Z-0.800 F24.000
G1 X-13.100 Y63.922 Z-0.800 F24.000
G1 X-13.900 Y64.722 Z-0.800 F24.000
G1 X-13.900 Y63.590 Z-0.800 F24.000
G1 X-13.100 Y62.790 Z-0.800 F24.000
G1 X-13.100 Y61.659 Z-0.800 F24.000
G1 X-13.900 Y62.459 Z-0.800 F24.000
G1 X-13.900 Y61.328 Z-0.800 F24.000
G1 X-13.100 Y60.528 Z-0.800 F24.000
G1 X-13.100 Y59.396 Z-0.800 F24.000
G1 X-13.900 Y60.196 Z-0.800 F24.000
G1 X-13.900 Y59.065 Z-0.800 F24.000
G1 X-13.100 Y58.265 Z-0.800 F24.000
G1 X-13.100 Y57.133 Z-0.800 F24.000
G1 X-13.900 Y57.933 Z-0.800 F24.000
G1 X-13.900 Y56.802 Z-0.800 F24.000
G1 X-13.100 Y56.002 Z-0.800 F24.000
G1 X-13.100 Y54.871 Z-0.800 F24.000
G1 X-13.900 Y55.671 Z-0.800 F24.000
G1 X-13.900 Y54.539 Z-0.800 F24.000
G1 X-13.100 Y53.739 Z-0.800 F24.000
G1 X-13.100 Y52.608 Z-0.800 F24.000
G1 X-13.900 Y53.408 Z-0.800 F24.000
G1 X-13.900 Y52.277 Z-0.800 F24.000
G1 X-13.100 Y51.477 Z-0.800 F24.000
G1 X-13.100 Y50.345 Z-0.800 F24.000
G1 X-13.900 Y51.145 Z-0.800 F24.000
G1 X-13.900 Y50.014 Z-0.800 F24.000
G1 X-13.100 Y49.214 Z-0.800 F24.000
G1 X-13.100 Y48.082 Z-0.800 F24.000
G1 X-13.900 Y48.882 Z-0.800 F24.000
G1 X-13.900 Y47.751 Z-0.800 F24.000
G1 X-13.100 Y46.951 Z-0.800 F24.000
G1 X-13.100 Y45.820 Z-0.800 F24.000
G1 X-13.900 Y46.620 Z-0.800 F24.000
G1 X-13.900 Y45.488 Z-0.800 F24.000
G1 X-13.100 Y44.688 Z-0.800 F24.000
G1 X-13.100 Y43.557 Z-0.800 F24.000
G1 X-13.900 Y44.357 Z-0.800 F24.000
G1 X-13.900 Y43.226 Z-0.800 F24.000
G1 X-13.100 Y42.426 Z-0.800 F24.000
G1 X-13.100 Y41.294 Z-0.800 F24.000
G1 X-13.900 Y42.094 Z-0.800 F24.000
G1 X-13.900 Y40.963 Z-0.800 F24.000
G1 X-13.100 Y40.163 Z-0.800 F24.000
G1 X-13.100 Y39.031 Z-0.800 F24.000
G1 X-13.900 Y39.831 Z-0.800 F24.000
G1 X-13.900 Y38.700 Z-0.800 F24.000
G1 X-13.100 Y37.900 Z-0.800 F24.000
G1 X-13.100 Y36.769 Z-0.800 F24.000
G1 X-13.900 Y37.569 Z-0.800 F24.000
G1 X-13.900 Y36.437 Z-0.800 F24.000
G1 X-13.100 Y35.637 Z-0.800 F24.000
G1 X-13.100 Y34.506 Z-0.800 F24.000
G1 X-13.900 Y35.306 Z-0.800 F24.000
G1 X-13.900 Y34.175 Z-0.800 F24.000
G1 X-13.100 Y33.375 Z-0.800 F24.000
G1 X-13.100 Y32.243 Z-0.800 F24.000
G1 X-13.900 Y33.043 Z-0.800 F24.000
G1 X-13.900 Y31.912 Z-0.800 F24.000
G1 X-13.100 Y31.112 Z-0.800 F24.000
G1 X-13.100 Y29.980 Z-0.800 F24.000
G1 X-13.900 Y30.780 Z-0.800 F24.000
G1 X-13.900 Y29.649 Z-0.800 F24.000
G1 X-13.100 Y28.849 Z-0.800 F24.000
G1 X-13.100 Y27.718 Z-0.800 F24.000
G1 X-13.900 Y28.518 Z-0.800 F24.000
G1 X-13.900 Y27.386 Z-0.800 F24.000
G1 X-13.100 Y26.586 Z-0.800 F24.000
G1 X-13.100 Y25.455 Z-0.800 F24.000
G1 X-13.900 Y26.255 Z-0.800 F24.000
G1 X-13.900 Y25.124 Z-0.800 F24.000
G1 X-13.100 Y24.324 Z-0.800 F24.000
G1 X-13.100 Y23.192 Z-0.800 F24.000
G1 X-13.900 Y23.992 Z-0.800 F24.000
G1 X-13.900 Y22.861 Z-0.800 F24.000
G1 X-13.100 Y22.061 Z-0.800 F24.000
G1 X-13.100 Y20.930 Z-0.800 F24.000
G1 X-13.900 Y21.730 Z-0.800 F24.000
G1 X-13.900 Y20.598 Z-0.800 F24.000
G1 X-13.100 Y19.798 Z-0.800 F24.000
G1 X-13.100 Y18.667 Z-0.800 F24.000
G1 X-13.900 Y19.467 Z-0.800 F24.000
G1 X-13.900 Y18.335 Z-0.800 F24.000
G1 X-13.100 Y17.535 Z-0.800 F24.000
G1 X-13.100 Y16.404 Z-0.800 F24.000
G1 X-13.900 Y17.204 Z-0.800 F24.000
G1 X-13.900 Y16.073 Z-0.800 F24.000
G1 X-13.100 Y15.273 Z-0.800 F24.000
G1 X-13.100 Y14.141 Z-0.800 F24.000
G1 X-13.900 Y14.941 Z-0.800 F24.000
G1 X-13.900 Y13.810 Z-0.800 F24.000
G1 X-13.100 Y13.010 Z-0.800 F24.000
G1 X-13.100 Y11.879 Z-0.800 F24.000
G1 X-13.900 Y12.679 Z-0.800 F24.000
G1 X-13.900 Y11.547 Z-0.800 F24.000
G1 X-13.100 Y10.747 Z-0.800 F24.000
G1 X-13.100 Y9.616 Z-0.800 F24.000
G1 X-13.900 Y10.416 Z-0.800 F24.000
G1 X-13.900 Y9.284 Z-0.800 F24.000
G1 X-13.100 Y8.484 Z-0.800 F24.000
G1 X-13.100 Y7.353 Z-0.800 F24.000
G1 X-13.900 Y8.153 Z-0.800 F24.000
G1 X-13.900 Y7.022 Z-0.800 F24.000
G1 X-13.900 Y6.400 Z-0.800 F24.000
G1 X-13.278 Y6.400 Z-0.800 F24.000
G1 X-13.900 Y7.022 Z-0.800 F24.000
G1 X-13.900 Y7.022 Z-1.600 F24.000
G1 X-13.278 Y6.400 Z-1.600 F24.000
G1 X-13.900 Y6.400 Z-1.600 F24.000
G1 X-13.900 Y7.022 Z-1.600 F24.000
G1 X-13.900 Y8.153 Z-1.600 F24.000
G1 X-13.100 Y7.353 Z-1.600 F24.000
G1 X-13.100 Y8.484 Z-1.600 F24.000
G1 X-13.900 Y9.284 Z-1.600 F24.000
G1 X-13.900 Y10.416 Z-1.600 F24.000
G1 X-13.100 Y9.616 Z-1.600 F24.000
G1 X-13.100 Y10.747 Z-1.600 F24.000
G1 X-13.900 Y11.547 Z-1.600 F24.000
G1 X-13.900 Y12.679 Z-1.600 F24.000
G1 X-13.100 Y11.879 Z-1.600 F24.000
G1 X-13.100 Y13.010 Z-1.600 F24.000
G1 X-13.900 Y13.810 Z-1.600 F24.000
G1 X-13.900 Y14.941 Z-1.600 F24.000
G1 X-13.100 Y14.141 Z-1.600 F24.000
G1 X-13.100 Y15.273 Z-1.600 F24.000
G1 X-13.900 Y16.073 Z-1.600 F24.000
G1 X-13.900 Y17.204 Z-1.600 F24.000
G1 X-13.100 Y16.404 Z-1.600 F24.000
G1 X-13.100 Y17.535 Z-1.600 F24.000
G1 X-13.900 Y18.335 Z-1.600 F24.000
G1 X-13.900 Y19.467 Z-1.600 F24.000
G1 X-13.100 Y18.667 Z-1.600 F24.000
G1 X-13.100 Y19.798 Z-1.600 F24.000
G1 X-13.900 Y20.598 Z-1.600 F24.000
G1 X-13.900 Y21.730 Z-1.600 F24.000
G1 X-13.100 Y20.930 Z-1.600 F24.000
G1 X-13.100 Y22.061 Z-1.600 F24.000
G1 X-13.900 Y22.861 Z-1.600 F24.000
G1 X-13.900 Y23.992 Z-1.600 F24.000
G1 X-13.100 Y23.192 Z-1.600 F24.000
G1 X-13.100 Y24.324 Z-1.600 F24.000
G1 X-13.900 Y25.124 Z-1.600 F24.000
G1 X-13.900 Y26.255 Z-1.600 F24.000
G1 X-13.100 Y25.455 Z-1.600 F24.000
G1 X-13.100 Y26.586 Z-1.600 F24.000
G1 X-13.900 Y27.386 Z-1.600 F24.000
G1 X-13.900 Y28.518 Z-1.600 F24.000
G1 X-13.100 Y27.718 Z-1.600 F24.000
G1 X-13.100 Y28.849 Z-1.600 F24.000
G1 X-13.900 Y29.649 Z-1.600 F24.000
G1 X-13.900 Y30.780 Z-1.600 F24.000
G1 X-13.100 Y29.980 Z-1.600 F24.000
G1 X-13.100 Y31.112 Z-1.600 F24.000
G1 X-13.900 Y31.912 Z-1.600 F24.000
G1 X-13.900 Y33.043 Z-1.600 F24.000
G1 X-13.100 Y32.243 Z-1.600 F24.000
G1 X-13.100 Y33.375 Z-1.600 F24.000
G1 X-13.900 Y34.175 Z-1.600 F24.000
G1 X-13.900 Y35.306 Z-1.600 F24.000
G1 X-13.100 Y34.506 Z-1.600 F24.000
G1 X-13.100 Y35.637 Z-1.600 F24.000
G1 X-13.900 Y36.437 Z-1.600 F24.000
G1 X-13.900 Y37.569 Z-1.600 F24.000
G1 X-13.100 Y36.769 Z-1.600 F24.000
G1 X-13.100 Y37.900 Z-1.600 F24.000
G1 X-13.900 Y38.700 Z-1.600 F24.000
G1 X-13.900 Y39.831 Z-1.600 F24.000
G1 X-13.100 Y39.031 Z-1.600 F24.000
G1 X-13.100 Y40.163 Z-1.600 F24.000
G1 X-13.900 Y40.963 Z-1.600 F24.000
G1 X-13.900 Y42.094 Z-1.600 F24.000
G1 X-13.100 Y41.294 Z-1.600 F24.000
G1 X-13.100 Y42.426 Z-1.600 F24.000
G1 X-13.900 Y43.226 Z-1.600 F24.000
G1 X-13.900 Y44.357 Z-1.600 F24.000
G1 X-13.100 Y43.557 Z-1.600 F24.000
G1 X-13.100 Y44.688 Z-1.600 F24.000
G1 X-13.900 Y45.488 Z-1.600 F24.000
G1 X-13.900 Y46.620 Z-1.600 F24.000
G1 X-13.100 Y45.820 Z-1.600 F24.000
G1 X-13.100 Y46.951 Z-1.600 F24.000
G1 X-13.900 Y47.751 Z-1.600 F24.000
G1 X-13.900 Y48.882 Z-1.600 F24.000
G1 X-13.100 Y48.082 Z-1.600 F24.000
G1 X-13.100 Y49.214 Z-1.600 F24.000
G1 X-13.900 Y50.014 Z-1.600 F24.000
G1 X-13.900 Y51.145 Z-1.600 F24.000
G1 X-13.100 Y50.345 Z-1.600 F24.000
G1 X-13.100 Y51.477 Z-1.600 F24.000
G1 X-13.900 Y52.277 Z-1.600 F24.000
G1 X-13.900 Y53.408 Z-1.600 F24.000
G1 X-13.100 Y52.608 Z-1.600 F24.000
G1 X-13.100 Y53.739 Z-1.600 F24.000
G1 X-13.900 Y54.539 Z-1.600 F24.000
G1 X-13.900 Y55.671 Z-1.600 F24.000
G1 X-13.100 Y54.871 Z-1.600 F24.000
G1 X-13.100 Y56.002 Z-1.600 F24.000
G1 X-13.900 Y56.802 Z-1.600 F24.000
G1 X-13.900 Y57.933 Z-1.600 F24.000
G1 X-13.100 Y57.133 Z-1.600 F24.000
G1 X-13.100 Y58.265 Z-1.600 F24.000
G1 X-13.900 Y59.065 Z-1.600 F24.000
G1 X-13.900 Y60.196 Z-1.600 F24.000
G1 X-13.100 Y59.396 Z-1.600 F24.000
G1 X-13.100 Y60.528 Z-1.600 F24.000
G1 X-13.900 Y61.328 Z-1.600 F24.000
G1 X-13.900 Y62.459 Z-1.600 F24.000
G1 X-13.100 Y61.659 Z-1.600 F24.000
G1 X-13.100 Y62.790 Z-1.600 F24.000
G1 X-13.900 Y63.590 Z-1.600 F24.000
G1 X-13.900 Y64.722 Z-1.600 F24.000
G1 X-13.100 Y63.922 Z-1.600 F24.000
G1 X-13.100 Y65.053 Z-1.600 F24.000
G1 X-13.900 Y65.853 Z-1.600 F24.000
G1 X-13.900 Y66.984 Z-1.600 F24.000
G1 X-13.100 Y66.184 Z-1.600 F24.000
G1 X-13.100 Y67.316 Z-1.600 F24.000
G1 X-13.900 Y68.116 Z-1.600 F24.000
G1 X-13.900 Y69.247 Z-1.600 F24.000
G1 X-13.100 Y68.447 Z-1.600 F24.000
G1 X-13.100 Y69.578 Z-1.600 F24.000
G1 X-13.900 Y70.378 Z-1.600 F24.000
G1 X-13.900 Y71.510 Z-1.600 F24.000
G1 X-13.100 Y70.710 Z-1.600 F24.000
G1 X-13.100 Y71.841 Z-1.600 F24.000
G1 X-13.900 Y72.641 Z-1.600 F24.000
G1 X-13.900 Y73.773 Z-1.600 F24.000
G1 X-13.100 Y72.973 Z-1.600 F24.000
G1 X-13.100 Y74.104 Z-1.600 F24.000
G1 X-13.900 Y74.904 Z-1.600 F24.000
G1 X-13.900 Y76.035 Z-1.600 F24.000
G1 X-13.100 Y75.235 Z-1.600 F24.000
G1 X-13.100 Y76.367 Z-1.600 F24.000
G1 X-13.900 Y77.167 Z-1.600 F24.000
G1 X-13.900 Y78.298 Z-1.600 F24.000
G1 X-13.100 Y77.498 Z-1.600 F24.000
G1 X-13.100 Y78.629 Z-1.600 F24.000
G1 X-13.900 Y79.429 Z-1.600 F24.000
G1 X-13.900 Y80.561 Z-1.600 F24.000
G1 X-13.100 Y79.761 Z-1.600 F24.000
G1 X-13.100 Y80.892 Z-1.600 F24.000
G1 X-13.900 Y81.692 Z-1.600 F24.000
G1 X-13.900 Y82.824 Z-1.600 F24.000
G1 X-13.100 Y82.024 Z-1.600 F24.000
G1 X-13.100 Y83.155 Z-1.600 F24.000
G1 X-13.900 Y83.955 Z-1.600 F24.000
G1 X-13.900 Y85.086 Z-1.600 F24.000
G1 X-13.100 Y84.286 Z-1.600 F24.000
G1 X-13.100 Y85.418 Z-1.600 F24.000
G1 X-13.900 Y86.218 Z-1.600 F24.000
G1 X-13.900 Y87.349 Z-1.600 F24.000
G1 X-13.100 Y86.549 Z-1.600 F24.000
G1 X-13.100 Y87.680 Z-1.600 F24.000
G1 X-13.900 Y88.480 Z-1.600 F24.000
G1 X-13.900 Y89.612 Z-1.600 F24.000
G1 X-13.100 Y88.812 Z-1.600 F24.000
G1 X-13.100 Y89.943 Z-1.600 F24.000
G1 X-13.900 Y90.743 Z-1.600 F24.000
G1 X-13.900 Y91.875 Z-1.600 F24.000
G1 X-13.100 Y91.075 Z-1.600 F24.000
G1 X-13.100 Y92.206 Z-1.600 F24.000
G1 X-13.900 Y93.006 Z-1.600 F24.000
G1 X-13.900 Y94.137 Z-1.600 F24.000
G1 X-13.100 Y93.337 Z-1.600 F24.000
G1 X-13.100 Y94.469 Z-1.600 F24.000
G1 X-13.900 Y95.269 Z-1.600 F24.000
G1 X-13.900 Y95.600 Z-1.600 F24.000
G1 X-13.100 Y95.600 Z-1.600 F24.000
G1 X-13.100 Y95.600 Z-2.000 F24.000
G1 X-13.900 Y95.600 Z-2.000 F24.000
G1 X-13.900 Y95.269 Z-2.000 F24.000
G1 X-13.100 Y94.469 Z-2.000 F24.000
G1 X-13.100 Y93.337 Z-2.000 F24.000
G1 X-13.900 Y94.137 Z-2.000 F24.000
G1 X-13.900 Y93.006 Z-2.000 F24.000
G1 X-13.100 Y92.206 Z-2.000 F24.000
G1 X-13.100 Y91.075 Z-2.000 F24.000
G1 X-13.900 Y91.875 Z-2.000 F24.000
G1 X-13.900 Y90.743 Z-2.000 F24.000
G1 X-13.100 Y89.943 Z-2.000 F24.000
G1 X-13.100 Y88.812 Z-2.000 F24.000
G1 X-13.900 Y89.612 Z-2.000 F24.000
G1 X-13.900 Y88.480 Z-2.000 F24.000
G1 X-13.100 Y87.680 Z-2.000 F24.000
G1 X-13.100 Y86.549 Z-2.000 F24.000
G1 X-13.900 Y87.349 Z-2.000 F24.000
G1 X-13.900 Y86.218 Z-2.000 F24.000
G1 X-13.100 Y85.418 Z-2.000 F24.000
G1 X-13.100 Y84.286 Z-2.000 F24.000
G1 X-13.900 Y85.086 Z-2.000 F24.000
G1 X-13.900 Y83.955 Z-2.000 F24.000
G1 X-13.100 Y83.155 Z-2.000 F24.000
G1 X-13.100 Y82.024 Z-2.000 F24.000
G1 X-13.900 Y82.824 Z-2.000 F24.000
G1 X-13.900 Y81.692 Z-2.000 F24.000
G1 X-13.100 Y80.892 Z-2.000 F24.000
G1 X-13.100 Y79.761 Z-2.000 F24.000
G1 X-13.900 Y80.561 Z-2.000 F24.000
G1 X-13.900 Y79.429 Z-2.000 F24.000
G1 X-13.100 Y78.629 Z-2.000 F24.000
G1 X-13.100 Y77.498 Z-2.000 F24.000
G1 X-13.900 Y78.298 Z-2.000 F24.000
G1 X-13.900 Y77.167 Z-2.000 F24.000
G1 X-13.100 Y76.367 Z-2.000 F24.000
G1 X-13.100 Y75.235 Z-2.000 F24.000
G1 X-13.900 Y76.035 Z-2.000 F24.000
G1 X-13.900 Y74.904 Z-2.000 F24.000
G1 X-13.100 Y74.104 Z-2.000 F24.000
G1 X-13.100 Y72.973 Z-2.000 F24.000
G1 X-13.900 Y73.773 Z-2.000 F24.000
G1 X-13.900 Y72.641 Z-2.000 F24.000
G1 X-13.100 Y71.841 Z-2.000 F24.000
G1 X-13.100 Y70.710 Z-2.000 F24.000
G1 X-13.900 Y71.510 Z-2.000 F24.000
G1 X-13.900 Y70.378 Z-2.000 F24.000
G1 X-13.100 Y69.578 Z-2.000 F24.000
G1 X-13.100 Y68.447 Z-2.000 F24.000
G1 X-13.900 Y69.247 Z-2.000 F24.000
G1 X-13.900 Y68.116 Z-2.000 F24.000
G1 X-13.100 Y67.316 Z-2.000 F24.000
G1 X-13.100 Y66.184 Z-2.000 F24.000
G1 X-13.900 Y66.984 Z-2.000 F24.000
G1 X-13.900 Y65.853 Z-2.000 F24.000
G1 X-13.100 Y65.053 Z-2.000 F24.000
G1 X-13.100 Y63.922 Z-2.000 F24.000
G1 X-13.900 Y64.722 Z-2.000 F24.000
G1 X-13.900 Y63.590 Z-2.000 F24.000
G1 X-13.100 Y62.790 Z-2.000 F24.000
G1 X-13.100 Y61.659 Z-2.000 F24.000
G1 X-13.900 Y62.459 Z-2.000 F24.000
G1 X-13.900 Y61.328 Z-2.000 F24.000
G1 X-13.100 Y60.528 Z-2.000 F24.000
G1 X-13.100 Y59.396 Z-2.000 F24.000
G1 X-13.900 Y60.196 Z-2.000 F24.000
G1 X-13.900 Y59.065 Z-2.000 F24.000
G1 X-13.100 Y58.265 Z-2.000 F24.000
G1 X-13.100 Y57.133 Z-2.000 F24.000
G1 X-13.900 Y57.933 Z-2.000 F24.000
G1 X-13.900 Y56.802 Z-2.000 F24.000
G1 X-13.100 Y56.002 Z-2.000 F24.000
G1 X-13.100 Y54.871 Z-2.000 F24.000
G1 X-13.900 Y55.671 Z-2.000 F24.000
G1 X-13.900 Y54.539 Z-2.000 F24.000
G1 X-13.100 Y53.739 Z-2.000 F24.000
G1 X-13.100 Y52.608 Z-2.000 F24.000
G1 X-13.900 Y53.408 Z-2.000 F24.000
G1 X-13.900 Y52.277 Z-2.000 F24.000
G1 X-13.100 Y51.477 Z-2.000 F24.000
G1 X-13.100 Y50.345 Z-2.000 F24.000
G1 X-13.900 Y51.145 Z-2.000 F24.000
G1 X-13.900 Y50.014 Z-2.000 F24.000
G1 X-13.100 Y49.214 Z-2.000 F24.000
G1 X-13.100 Y48.082 Z-2.000 F24.000
G1 X-13.900 Y48.882 Z-2.000 F24.000
G1 X-13.900 Y47.751 Z-2.000 F24.000
G1 X-13.100 Y46.951 Z-2.000 F24.000
G1 X-13.100 Y45.820 Z-2.000 F24.000
G1 X-13.900 Y46.620 Z-2.000 F24.000
G1 X-13.900 Y45.488 Z-2.000 F24.000
G1 X-13.100 Y44.688 Z-2.000 F24.000
G1 X-13.100 Y43.557 Z-2.000 F24.000
G1 X-13.900 Y44.357 Z-2.000 F24.000
G1 X-13.900 Y43.226 Z-2.000 F24.000
G1 X-13.100 Y42.426 Z-2.000 F24.000
G1 X-13.100 Y41.294 Z-2.000 F24.000
G1 X-13.900 Y42.094 Z-2.000 F24.000
G1 X-13.900 Y40.963 Z-2.000 F24.000
G1 X-13.100 Y40.163 Z-2.000 F24.000
G1 X-13.100 Y39.031 Z-2.000 F24.000
G1 X-13.900 Y39.831 Z-2.000 F24.000
G1 X-13.900 Y38.700 Z-2.000 F24.000
G1 X-13.100 Y37.900 Z-2.000 F24.000
G1 X-13.100 Y36.769 Z-2.000 F24.000
G1 X-13.900 Y37.569 Z-2.000 F24.000
G1 X-13.900 Y36.437 Z-2.000 F24.000
G1 X-13.100 Y35.637 Z-2.000 F24.000
G1 X-13.100 Y34.506 Z-2.000 F24.000
G1 X-13.900 Y35.306 Z-2.000 F24.000
G1 X-13.900 Y34.175 Z-2.000 F24.000
G1 X-13.100 Y33.375 Z-2.000 F24.000
G1 X-13.100 Y32.243 Z-2.000 F24.000
G1 X-13.900 Y33.043 Z-2.000 F24.000
G1 X-13.900 Y31.912 Z-2.000 F24.000
G1 X-13.100 Y31.112 Z-2.000 F24.000
G1 X-13.100 Y29.980 Z-2.000 F24.000
G1 X-13.900 Y30.780 Z-2.000 F24.000
G1 X-13.900 Y29.649 Z-2.000 F24.000
G1 X-13.100 Y28.849 Z-2.000 F24.000
G1 X-13.100 Y27.718 Z-2.000 F24.000
G1 X-13.900 Y28.518 Z-2.000 F24.000
G1 X-13.900 Y27.386 Z-2.000 F24.000
G1 X-13.100 Y26.586 Z-2.000 F24.000
G1 X-13.100 Y25.455 Z-2.000 F24.000
G1 X-13.900 Y26.255 Z-2.000 F24.000
G1 X-13.900 Y25.124 Z-2.000 F24.000
G1 X-13.100 Y24.324 Z-2.000 F24.000
G1 X-13.100 Y23.192 Z-2.000 F24.000
G1 X-13.900 Y23.992 Z-2.000 F24.000
G1 X-13.900 Y22.861 Z-2.000 F24.000
G1 X-13.100 Y22.061 Z-2.000 F24.000
G1 X-13.100 Y20.930 Z-2.000 F24.000
G1 X-13.900 Y21.730 Z-2.000 F24.000
G1 X-13.900 Y20.598 Z-2.000 F24.000
G1 X-13.100 Y19.798 Z-2.000 F24.000
G1 X-13.100 Y18.667 Z-2.000 F24.000
G1 X-13.900 Y19.467 Z-2.000 F24.000
G1 X-13.900 Y18.335 Z-2.000 F24.000
G1 X-13.100 Y17.535 Z-2.000 F24.000
G1 X-13.100 Y16.404 Z-2.000 F24.000
G1 X-13.900 Y17.204 Z-2.000 F24.000
G1 X-13.900 Y16.073 Z-2.000 F24.000
G1 X-13.100 Y15.273 Z-2.000 F24.000
G1 X-13.100 Y14.141 Z-2.000 F24.000
G1 X-13.900 Y14.941 Z-2.000 F24.000
G1 X-13.900 Y13.810 Z-2.000 F24.000
G1 X-13.100 Y13.010 Z-2.000 F24.000
G1 X-13.100 Y11.879 Z-2.000 F24.000
G1 X-13.900 Y12.679 Z-2.000 F24.000
G1 X-13.900 Y11.547 Z-2.000 F24.000
G1 X-13.100 Y10.747 Z-2.000 F24.000
G1 X-13.100 Y9.616 Z-2.000 F24.000
G1 X-13.900 Y10.416 Z-2.000 F24.000
G1 X-13.900 Y9.284 Z-2.000 F24.000
G1 X-13.100 Y8.484 Z-2.000 F24.000
G1 X-13.100 Y7.353 Z-2.000 F24.000
G1 X-13.900 Y8.153 Z-2.000 F24.000
G1 X-13.900 Y7.022 Z-2.000 F24.000
G1 X-13.900 Y6.400 Z-2.000 F24.000
G1 X-13.278 Y6.400 Z-2.000 F24.000
G1 X-13.900 Y7.022 Z-2.000 F24.000
G0 Z5.000
G0 Z5.000
(Finish operation: Pocket_Shape)
(Begin operation: Profile006)
(Path: Profile006)
(Profile006)
(Compensated Tool Path. Diameter: 0.8)
G0 Z5.000
G0 X-3.808 Y96.351
G0 Z3.000
G1 X-3.808 Y96.351 Z-0.800 F24.000
G2 X-3.600 Y96.000 Z-0.800 I-0.192 J-0.351 K0.000 F24.000
G1 X-3.600 Y91.400 Z-0.800 F24.000
G1 X-2.000 Y91.400 Z-0.800 F24.000
G2 X-1.600 Y91.000 Z-0.800 I-0.000 J-0.400 K0.000 F24.000
G1 X-1.600 Y11.000 Z-0.800 F24.000
G2 X-2.000 Y10.600 Z-0.800 I-0.400 J0.000 K0.000 F24.000
G1 X-3.600 Y10.600 Z-0.800 F24.000
G1 X-3.600 Y6.000 Z-0.800 F24.000
G2 X-4.000 Y5.600 Z-0.800 I-0.400 J0.000 K0.000 F24.000
G1 X-11.100 Y5.600 Z-0.800 F24.000
G1 X-11.100 Y2.000 Z-0.800 F24.000
G2 X-11.500 Y1.600 Z-0.800 I-0.400 J0.000 K0.000 F24.000
G1 X-27.500 Y1.600 Z-0.800 F24.000
G2 X-27.900 Y2.000 Z-0.800 I0.000 J0.400 K0.000 F24.000
G1 X-27.900 Y5.600 Z-0.800 F24.000
G1 X-35.000 Y5.600 Z-0.800 F24.000
G2 X-35.400 Y6.000 Z-0.800 I0.000 J0.400 K0.000 F24.000
G1 X-35.400 Y10.600 Z-0.800 F24.000
G1 X-39.000 Y10.600 Z-0.800 F24.000
G2 X-39.400 Y11.000 Z-0.800 I0.000 J0.400 K0.000 F24.000
G1 X-39.400 Y91.000 Z-0.800 F24.000
G2 X-39.000 Y91.400 Z-0.800 I0.400 J-0.000 K0.000 F24.000
G1 X-35.400 Y91.400 Z-0.800 F24.000
G1 X-35.400 Y96.000 Z-0.800 F24.000
G2 X-35.000 Y96.400 Z-0.800 I0.400 J-0.000 K0.000 F24.000
G1 X-27.900 Y96.400 Z-0.800 F24.000
G1 X-27.900 Y100.000 Z-0.800 F24.000
G2 X-27.500 Y100.400 Z-0.800 I0.400 J-0.000 K0.000 F24.000
G1 X-11.500 Y100.400 Z-0.800 F24.000
G2 X-11.100 Y100.000 Z-0.800 I-0.000 J-0.400 K0.000 F24.000
G1 X-11.100 Y96.400 Z-0.800 F24.000
G1 X-4.000 Y96.400 Z-0.800 F24.000
G2 X-3.808 Y96.351 Z-0.800 I-0.000 J-0.400 K0.000 F24.000
G1 X-3.808 Y96.351 Z-1.600 F24.000
G2 X-3.600 Y96.000 Z-1.600 I-0.192 J-0.351 K0.000 F24.000
G1 X-3.600 Y91.400 Z-1.600 F24.000
G1 X-2.000 Y91.400 Z-1.600 F24.000
G2 X-1.600 Y91.000 Z-1.600 I-0.000 J-0.400 K0.000 F24.000
G1 X-1.600 Y11.000 Z-1.600 F24.000
G2 X-2.000 Y10.600 Z-1.600 I-0.400 J0.000 K0.000 F24.000
G1 X-3.600 Y10.600 Z-1.600 F24.000
G1 X-3.600 Y6.000 Z-1.600 F24.000
G2 X-4.000 Y5.600 Z-1.600 I-0.400 J0.000 K0.000 F24.000
G1 X-11.100 Y5.600 Z-1.600 F24.000
G1 X-11.100 Y2.000 Z-1.600 F24.000
G2 X-11.500 Y1.600 Z-1.600 I-0.400 J0.000 K0.000 F24.000
G1 X-27.500 Y1.600 Z-1.600 F24.000
G2 X-27.900 Y2.000 Z-1.600 I0.000 J0.400 K0.000 F24.000
G1 X-27.900 Y5.600 Z-1.600 F24.000
G1 X-35.000 Y5.600 Z-1.600 F24.000
G2 X-35.400 Y6.000 Z-1.600 I0.000 J0.400 K0.000 F24.000
G1 X-35.400 Y10.600 Z-1.600 F24.000
G1 X-39.000 Y10.600 Z-1.600 F24.000
G2 X-39.400 Y11.000 Z-1.600 I0.000 J0.400 K0.000 F24.000
G1 X-39.400 Y91.000 Z-1.600 F24.000
G2 X-39.000 Y91.400 Z-1.600 I0.400 J-0.000 K0.000 F24.000
G1 X-35.400 Y91.400 Z-1.600 F24.000
G1 X-35.400 Y96.000 Z-1.600 F24.000
G2 X-35.000 Y96.400 Z-1.600 I0.400 J-0.000 K0.000 F24.000
G1 X-27.900 Y96.400 Z-1.600 F24.000
G1 X-27.900 Y100.000 Z-1.600 F24.000
G2 X-27.500 Y100.400 Z-1.600 I0.400 J-0.000 K0.000 F24.000
G1 X-11.500 Y100.400 Z-1.600 F24.000
G2 X-11.100 Y100.000 Z-1.600 I-0.000 J-0.400 K0.000 F24.000
G1 X-11.100 Y96.400 Z-1.600 F24.000
G1 X-4.000 Y96.400 Z-1.600 F24.000
G2 X-3.808 Y96.351 Z-1.600 I-0.000 J-0.400 K0.000 F24.000
G1 X-3.808 Y96.351 Z-2.400 F24.000
G2 X-3.600 Y96.000 Z-2.400 I-0.192 J-0.351 K0.000 F24.000
G1 X-3.600 Y91.400 Z-2.400 F24.000
G1 X-2.000 Y91.400 Z-2.400 F24.000
G2 X-1.600 Y91.000 Z-2.400 I-0.000 J-0.400 K0.000 F24.000
G1 X-1.600 Y11.000 Z-2.400 F24.000
G2 X-2.000 Y10.600 Z-2.400 I-0.400 J0.000 K0.000 F24.000
G1 X-3.600 Y10.600 Z-2.400 F24.000
G1 X-3.600 Y6.000 Z-2.400 F24.000
G2 X-4.000 Y5.600 Z-2.400 I-0.400 J0.000 K0.000 F24.000
G1 X-11.100 Y5.600 Z-2.400 F24.000
G1 X-11.100 Y2.000 Z-2.400 F24.000
G2 X-11.500 Y1.600 Z-2.400 I-0.400 J0.000 K0.000 F24.000
G1 X-27.500 Y1.600 Z-2.400 F24.000
G2 X-27.900 Y2.000 Z-2.400 I0.000 J0.400 K0.000 F24.000
G1 X-27.900 Y5.600 Z-2.400 F24.000
G1 X-35.000 Y5.600 Z-2.400 F24.000
G2 X-35.400 Y6.000 Z-2.400 I0.000 J0.400 K0.000 F24.000
G1 X-35.400 Y10.600 Z-2.400 F24.000
G1 X-39.000 Y10.600 Z-2.400 F24.000
G2 X-39.400 Y11.000 Z-2.400 I0.000 J0.400 K0.000 F24.000
G1 X-39.400 Y91.000 Z-2.400 F24.000
G2 X-39.000 Y91.400 Z-2.400 I0.400 J-0.000 K0.000 F24.000
G1 X-35.400 Y91.400 Z-2.400 F24.000
G1 X-35.400 Y96.000 Z-2.400 F24.000
G2 X-35.000 Y96.400 Z-2.400 I0.400 J-0.000 K0.000 F24.000
G1 X-27.900 Y96.400 Z-2.400 F24.000
G1 X-27.900 Y100.000 Z-2.400 F24.000
G2 X-27.500 Y100.400 Z-2.400 I0.400 J-0.000 K0.000 F24.000
G1 X-11.500 Y100.400 Z-2.400 F24.000
G2 X-11.100 Y100.000 Z-2.400 I-0.000 J-0.400 K0.000 F24.000
G1 X-11.100 Y96.400 Z-2.400 F24.000
G1 X-4.000 Y96.400 Z-2.400 F24.000
G2 X-3.808 Y96.351 Z-2.400 I-0.000 J-0.400 K0.000 F24.000
G1 X-3.808 Y96.351 Z-3.200 F24.000
G2 X-3.600 Y96.000 Z-3.200 I-0.192 J-0.351 K0.000 F24.000
G1 X-3.600 Y91.400 Z-3.200 F24.000
G1 X-2.000 Y91.400 Z-3.200 F24.000
G2 X-1.600 Y91.000 Z-3.200 I-0.000 J-0.400 K0.000 F24.000
G1 X-1.600 Y11.000 Z-3.200 F24.000
G2 X-2.000 Y10.600 Z-3.200 I-0.400 J0.000 K0.000 F24.000
G1 X-3.600 Y10.600 Z-3.200 F24.000
G1 X-3.600 Y6.000 Z-3.200 F24.000
G2 X-4.000 Y5.600 Z-3.200 I-0.400 J0.000 K0.000 F24.000
G1 X-11.100 Y5.600 Z-3.200 F24.000
G1 X-11.100 Y2.000 Z-3.200 F24.000
G2 X-11.500 Y1.600 Z-3.200 I-0.400 J0.000 K0.000 F24.000
G1 X-27.500 Y1.600 Z-3.200 F24.000
G2 X-27.900 Y2.000 Z-3.200 I0.000 J0.400 K0.000 F24.000
G1 X-27.900 Y5.600 Z-3.200 F24.000
G1 X-35.000 Y5.600 Z-3.200 F24.000
G2 X-35.400 Y6.000 Z-3.200 I0.000 J0.400 K0.000 F24.000
G1 X-35.400 Y10.600 Z-3.200 F24.000
G1 X-39.000 Y10.600 Z-3.200 F24.000
G2 X-39.400 Y11.000 Z-3.200 I0.000 J0.400 K0.000 F24.000
G1 X-39.400 Y91.000 Z-3.200 F24.000
G2 X-39.000 Y91.400 Z-3.200 I0.400 J-0.000 K0.000 F24.000
G1 X-35.400 Y91.400 Z-3.200 F24.000
G1 X-35.400 Y96.000 Z-3.200 F24.000
G2 X-35.000 Y96.400 Z-3.200 I0.400 J-0.000 K0.000 F24.000
G1 X-27.900 Y96.400 Z-3.200 F24.000
G1 X-27.900 Y100.000 Z-3.200 F24.000
G2 X-27.500 Y100.400 Z-3.200 I0.400 J-0.000 K0.000 F24.000
G1 X-11.500 Y100.400 Z-3.200 F24.000
G2 X-11.100 Y100.000 Z-3.200 I-0.000 J-0.400 K0.000 F24.000
G1 X-11.100 Y96.400 Z-3.200 F24.000
G1 X-4.000 Y96.400 Z-3.200 F24.000
G2 X-3.808 Y96.351 Z-3.200 I-0.000 J-0.400 K0.000 F24.000
G1 X-3.808 Y96.351 Z-4.000 F24.000
G2 X-3.600 Y96.000 Z-4.000 I-0.192 J-0.351 K0.000 F24.000
G1 X-3.600 Y91.400 Z-4.000 F24.000
G1 X-2.000 Y91.400 Z-4.000 F24.000
G2 X-1.600 Y91.000 Z-4.000 I-0.000 J-0.400 K0.000 F24.000
G1 X-1.600 Y11.000 Z-4.000 F24.000
G2 X-2.000 Y10.600 Z-4.000 I-0.400 J0.000 K0.000 F24.000
G1 X-3.600 Y10.600 Z-4.000 F24.000
G1 X-3.600 Y6.000 Z-4.000 F24.000
G2 X-4.000 Y5.600 Z-4.000 I-0.400 J0.000 K0.000 F24.000
G1 X-11.100 Y5.600 Z-4.000 F24.000
G1 X-11.100 Y2.000 Z-4.000 F24.000
G2 X-11.500 Y1.600 Z-4.000 I-0.400 J0.000 K0.000 F24.000
G1 X-27.500 Y1.600 Z-4.000 F24.000
G2 X-27.900 Y2.000 Z-4.000 I0.000 J0.400 K0.000 F24.000
G1 X-27.900 Y5.600 Z-4.000 F24.000
G1 X-35.000 Y5.600 Z-4.000 F24.000
G2 X-35.400 Y6.000 Z-4.000 I0.000 J0.400 K0.000 F24.000
G1 X-35.400 Y10.600 Z-4.000 F24.000
G1 X-39.000 Y10.600 Z-4.000 F24.000
G2 X-39.400 Y11.000 Z-4.000 I0.000 J0.400 K0.000 F24.000
G1 X-39.400 Y91.000 Z-4.000 F24.000
G2 X-39.000 Y91.400 Z-4.000 I0.400 J-0.000 K0.000 F24.000
G1 X-35.400 Y91.400 Z-4.000 F24.000
G1 X-35.400 Y96.000 Z-4.000 F24.000
G2 X-35.000 Y96.400 Z-4.000 I0.400 J-0.000 K0.000 F24.000
G1 X-27.900 Y96.400 Z-4.000 F24.000
G1 X-27.900 Y100.000 Z-4.000 F24.000
G2 X-27.500 Y100.400 Z-4.000 I0.400 J-0.000 K0.000 F24.000
G1 X-11.500 Y100.400 Z-4.000 F24.000
G2 X-11.100 Y100.000 Z-4.000 I-0.000 J-0.400 K0.000 F24.000
G1 X-11.100 Y96.400 Z-4.000 F24.000
G1 X-4.000 Y96.400 Z-4.000 F24.000
G2 X-3.808 Y96.351 Z-4.000 I-0.000 J-0.400 K0.000 F24.000
G0 Z5.000
G0 Z5.000
(Finish operation: Profile006)
(Begin postamble)
M5
G17 G90
M2
